!! 00124] ST[KA
!!!OTL: Lullaby
!!!ARE: America, USA
!! Ethnic Group: American Indian, Creek
!!!YOR: Transkr. nach AAFS L 36)
!!!SCT: C0004
!!!YEM: Copyright 1995, estate of Helmut Schaffrath.
**kern
*ICvox
*Ivox
*M4/4
*k[b-e-a-]
*E-:
{2g
2e-}
=1
{8e-
4.B-
4.e-
8r}
=2
{8g
4.f
2e-}
=3
{8e-
4.B-
4.e-
8r}
=4
{8e-
8e-
8f
8g
4.e-
8r}
=5
{4e-
4B-
4.e-
8r}
=6
{4g
4e-
4.g
8r}
=7
{8e-
8e-
4g
4.e-
8r}
=8
{4e-
4B-
4.e-
8r}
=9
{4e-
4B-
4.e-
8r}
=10
{8g
4.f
4.e-
8r}
=11
{8e-
4.B-
4.e-
8r}
=12
{2g
2e-}
=13
{8e-
4.B-
4.e-
8r}
=14
{8e-
8e-
8f
8g
4.e-
8r}
=15
{4e-
4B-
4.e-
8r}
=16
{4g
4e-
4.g
8r}
=17
{8e-
8e-
4g
4.e-
8r}
=18
{4e-
4B-
4.e-
8r}
=19
{4e-
4B-
4.e-
8r}
=20
{8g
4.f
4.e-
8r}
=21
{8e-
4.B-
2e-}
==
!!!AGN: Wiegenlied
!! s. Schaffrath Teilcurriculum 1979. Auch auf KA 00115? Die Phrasierung
!!    ist eintaktig, um die Formelhaftigkeit des Liedes zu kennzeichnen. Die
!!    Pausen wurden im Vgl. zur Transkription etwas verkÅrzt, um die Tîne
!!    des Synthi besser ausklingen zu lassen.
!!!AMT: simple quadruple
!!!AIN: vox
!!!EED: Helmut Schaffrath
!!!EEV: 1.0
*-
